lib/brands/icons/google-tag-assistant.svg

<svg xmlns="http://www.w3.org/2000/svg" fill="none" aria-hidden="true" viewBox="0 0 48 48"><g id="google-tag-assistant-Icon"><g id="Group"><path id="Vector" fill="white" d="M19.1357 13.1786H41.7903V34.8927H19.1357V13.1786Z"/><path id="Vector_2" fill="#4584F0" d="M28.9808 26.2927C28.1896 26.2927 27.6172 26.8877 27.6172 27.7114C27.6172 28.5108 28.1977 29.114 28.9662 29.114C29.7575 29.114 30.3298 28.5254 30.3298 27.7033C30.3055 26.8731 29.7575 26.2927 28.9808 26.2927ZM28.9808 18.8779C28.1896 18.8779 27.6172 19.473 27.6172 20.2966C27.6172 21.096 28.1977 21.6992 28.9662 21.6992C29.7575 21.6992 30.3298 21.1106 30.3298 20.2885C30.3055 19.4584 29.7575 18.8779 28.9808 18.8779ZM33.3943 16.7457C33.3311 16.6679 33.2371 16.6209 33.1349 16.6209H31.9594C31.8345 16.6209 31.7243 16.6922 31.6691 16.8008C31.614 16.9111 31.6221 17.0441 31.6935 17.1462C33.1203 19.1065 33.8094 21.3327 33.8094 23.974C33.8094 26.6153 33.1203 28.8643 31.6935 30.8554C31.6221 30.9575 31.6156 31.0905 31.6691 31.2007C31.7243 31.311 31.841 31.3807 31.9594 31.3807H33.1349C33.2371 31.3807 33.3392 31.3337 33.4008 31.2478C34.9704 29.1626 35.7308 26.7953 35.7308 23.9967C35.7308 21.1673 34.9477 18.7368 33.3943 16.7457Z"/><g id="Group_2"><path id="Vector_3" fill="#3969BB" d="M43.9937 34.3836V18.753L40.4347 15.1924C40.7476 15.6075 40.9438 16.1247 40.9438 16.6825V31.3029C40.9438 32.6584 39.8299 33.7723 38.4744 33.7723H23.8004C23.2589 33.7723 22.7579 33.5923 22.3428 33.294L25.9018 36.853H41.5243C42.8798 36.853 43.9937 35.7472 43.9937 34.3836Z"/><path id="Vector_4" fill="#4584F0" d="M41.516 11.1404H18.602C17.2465 11.1404 16.1017 11.0221 14.3068 12.8105L5.59001 21.0101C3.47405 23.126 3.46594 24.8674 5.59001 26.9915L14.3068 35.1911C16.0077 36.8919 17.2383 36.8611 18.602 36.8611H25.9L22.341 33.3021C22.1367 33.1529 21.9567 32.973 21.8075 32.7687C21.5092 32.3617 21.3292 31.859 21.3292 31.311V16.6906C21.3292 15.3351 22.4431 14.2212 23.7986 14.2212H38.4726C39.0287 14.2212 39.5459 14.4092 39.9626 14.7303C40.1426 14.8632 40.2999 15.0286 40.441 15.2086L44 18.7676V13.6261C43.9935 12.2544 42.8796 11.1404 41.516 11.1404ZM12.7551 27.1326C11.0234 27.1326 9.61926 25.73 9.61926 23.9967C9.61926 22.2634 11.0218 20.8609 12.7551 20.8609C14.4884 20.8609 15.8909 22.2634 15.8909 23.9967C15.8909 25.73 14.4787 27.1326 12.7551 27.1326Z"/></g></g></g></svg>

<svg xmlns="http://www.w3.org/2000/svg" fill="none" aria-hidden="true" viewBox="0 0 48 48"><path fill="#fff" d="M19.136 13.179H41.79v21.714H19.136V13.179Z"/><path fill="#4584F0" d="M28.98 26.293c-.79 0-1.363.595-1.363 1.418 0 .8.58 1.403 1.35 1.403.79 0 1.363-.589 1.363-1.41-.024-.83-.572-1.411-1.35-1.411Zm0-7.415c-.79 0-1.363.595-1.363 1.419 0 .799.58 1.402 1.35 1.402.79 0 1.363-.588 1.363-1.41-.024-.83-.572-1.411-1.35-1.411Zm4.414-2.132a.334.334 0 0 0-.26-.125H31.96a.326.326 0 0 0-.29.18.339.339 0 0 0 .024.345c1.427 1.96 2.116 4.187 2.116 6.828s-.689 4.89-2.115 6.881a.343.343 0 0 0-.025.346.33.33 0 0 0 .29.18h1.176a.328.328 0 0 0 .266-.133c1.57-2.085 2.33-4.453 2.33-7.251 0-2.83-.783-5.26-2.337-7.251Z"/><path fill="#3969BB" d="M43.994 34.384V18.753l-3.56-3.56c.314.415.51.932.51 1.49v14.62a2.48 2.48 0 0 1-2.47 2.47H23.8a2.49 2.49 0 0 1-1.457-.479l3.559 3.559h15.622a2.475 2.475 0 0 0 2.47-2.47Z"/><path fill="#4584F0" d="M41.516 11.14H18.602c-1.355 0-2.5-.118-4.295 1.67l-8.717 8.2c-2.116 2.116-2.124 3.857 0 5.981l8.717 8.2c1.7 1.7 2.931 1.67 4.295 1.67H25.9l-3.559-3.559a2.457 2.457 0 0 1-1.012-1.991v-14.62a2.48 2.48 0 0 1 2.47-2.47h14.674a2.43 2.43 0 0 1 1.49.51c.18.132.337.298.478.478L44 18.768v-5.142a2.495 2.495 0 0 0-2.484-2.486Zm-28.76 15.993a3.135 3.135 0 1 1 0-6.272 3.134 3.134 0 0 1 3.135 3.136 3.14 3.14 0 0 1-3.136 3.136Z"/></svg>
